X: 15942
T: Granny In The Attic
R: hornpipe
M: 4/4
K: Dmajor
|:E2 z B ABFA|EdBA FAEF|D2 B2 ABdf-|fedA BAGF|
E3B ABFA|EdBA FAEF|D2 d/d/d ABdg|1 fdBA A2GF:|2 fA A2 gfAB||
|:dAAF G2 Ec|dA z g- gfdc|dAAF G2 Ec|dAgf- fdgf|
dAAF G2 Ec|dA ~A2 FAdg|fBB/B/B FABd|1 c/B/AFc d3e:|2 c/B/AFc d z3||

